X: 22809
T: Lansdowne Lass, The
R: reel
M: 4/4
K: Gmajor
GA|B2ge dBGA|BdBG AGEG|DG~G2 DGBd|egdB ABGA|
B2ge dBGA|BdBG AGEG|DG~G2 DGBe|dBAB G2:|
|:GA|BG~G2 DG~G2|gdeg dG~G2|g2eg dG (3Bcd|eaag a2ga|
bgab agef|g2ge dBAB|G2EG DGBe|dBAB G2:|

